static/assets/template/assets/img/icons/essential/detailed/Package_Opened.svg

<svg height="133" viewBox="0 0 151 133" width="151" xmlns="http://www.w3.org/2000/svg"><g fill="none" fill-rule="evenodd" transform="translate(1 1)"><g fill-rule="nonzero"><path d="m18.4 36.1-16.8-16.4c-1.5-1.5-.8-4.1 1.3-4.6l56-14.1c1.5-.4 3 .2 4 1.3l14.3 17.8z"/><path d="m18.4 36.1-14.3-13.2c-1.5-1.5-.8-4.1 1.3-4.6l52-13.3c1.5-.4 3 .2 4 1.3l11.8 14.6z"/><path d="m18.4 36.1 59.2 11.2.3 82.9-59.4-15.8s.4-78.3-.1-78.3z"/><path d="m134.4 32.9-56.8 14.5.3 82.9 56.7-19.8s-.7-77.6-.2-77.6z"/><path d="m21.7 39.9 57.5 10.8.3 79.6-57.6-15.2s.3-75.2-.2-75.2z"/><path d="m134.6 111.3-55.1 19-.3-75.6v-3.9l55.2-13.9c-.2 0-.2 14.4-.1 30.5.1 20.5.3 43.9.3 43.9z"/><path d="m134.3 61.7-46.6 13.1c-2 .2-3.8-1-4.4-3l-4-17.1v-3.9l55.2-13.9c-.3-.1-.3 8.7-.2 24.8z"/></g><path d="m77.8 92.6.1 37.7-59.4-15.8s.3-78.3-.2-78.3l59.2 11.2" stroke-linecap="round" stroke-linejoin="round" stroke-width="3"/><path d="m77.7 72.1v12.2" stroke-linecap="round" stroke-linejoin="round" stroke-width="3"/><path d="m134.2 55.4c0-12.7 0-22.5.2-22.5l-56.7 14.4" stroke-linecap="round" stroke-linejoin="round" stroke-width="3"/><path d="m77.8 101.2.1 29.1 56.7-19.8s-.2-25.6-.3-47.4" stroke-linecap="round" stroke-linejoin="round" stroke-width="3"/><path d="m18.4 36.1 58.8-16 57.2 12.8-56.8 14.4z" fill-rule="nonzero"/><path d="m27.7 37 49.3-13.9 52.6 11.8-47.5 12.4z" fill-rule="nonzero"/><path d="m96.4 24.4 38 8.5-56.8 14.4-59.2-11.2 58.8-16 7.3 1.7" stroke-linecap="round" stroke-linejoin="round" stroke-width="3"/><path d="m87.7 22.5 1.3.3" stroke-linecap="round" stroke-linejoin="round" stroke-width="3"/><path d="m18.4 36.1-16.8-16.4c-1.5-1.5-.8-4.1 1.3-4.6l56-14.1c1.5-.4 3 .2 4 1.3l14.3 17.8z" stroke-linecap="round" stroke-linejoin="round" stroke-width="3"/><path d="m134.4 32.9 13.3 16.1c1.3 1.7.5 4.1-1.5 4.7l-47.4 13.9c-1.5.4-3-.1-4-1.2l-17.2-19z" fill-rule="nonzero"/><path d="m133.6 36.1 10.8 13.7c1.3 1.7.5 4.1-1.5 4.7l-44.2 13.1c-1.5.4-3-.1-4-1.2l-14.8-16.6z" fill-rule="nonzero"/><path d="m134.4 32.9 13.3 16.1c1.3 1.7.5 4.1-1.5 4.7l-47.4 13.9c-1.5.4-3-.1-4-1.2l-17.2-19z" stroke-linecap="round" stroke-linejoin="round" stroke-width="3"/><path d="m77 34.2v13" fill-rule="nonzero" stroke-linecap="round" stroke-linejoin="round" stroke-width="3"/><path d="m77 25.4v4" fill-rule="nonzero" stroke-linecap="round" stroke-linejoin="round" stroke-width="3"/><path d="m50.8 77.7-21.6-4.9v-14.9l21.6 4.9z" fill-rule="nonzero"/><path d="m50.8 77.7-19.4-4.1v-12.6l18.9 4.4z" fill-rule="nonzero"/><path d="m50.8 77.7-21.6-4.9v-14.9l21.6 4.9z" stroke-linecap="round" stroke-linejoin="round" stroke-width="3"/></g></svg>

<?xml version="1.0" encoding="UTF-8"?>
<svg width="151px" height="133px" viewBox="0 0 151 133" version="1.1" xmlns="http://www.w3.org/2000/svg" xmlns:xlink="http://www.w3.org/1999/xlink">
    <!-- Generator: Sketch 51.2 (57519) - http://www.bohemiancoding.com/sketch -->
    <title>Package_Opened</title>
    <desc>Created with Sketch.</desc>
    <defs></defs>
    <g id="Page-1" stroke="none" stroke-width="1" fill="none" fill-rule="evenodd">
        <g id="Package_Opened" transform="translate(1.000000, 1.000000)">
            <path d="M18.4,36.1 L1.6,19.7 C0.1,18.2 0.8,15.6 2.9,15.1 L58.9,1 C60.4,0.6 61.9,1.2 62.9,2.3 L77.2,20.1 L18.4,36.1" id="Shape" class="fill-neutral" fill-rule="nonzero"></path>
            <path d="M18.4,36.1 L4.1,22.9 C2.6,21.4 3.3,18.8 5.4,18.3 L57.4,5 C58.9,4.6 60.4,5.2 61.4,6.3 L73.2,20.9 L18.4,36.1" id="Shape" class="fill-primary-100" fill-rule="nonzero"></path>
            <path d="M18.4,36.1 L77.6,47.3 L77.9,130.2 L18.5,114.4 C18.5,114.4 18.9,36.1 18.4,36.1 Z" id="Shape" class="fill-neutral" fill-rule="nonzero"></path>
            <path d="M134.4,32.9 L77.6,47.4 L77.9,130.3 L134.6,110.5 C134.6,110.5 133.9,32.9 134.4,32.9 Z" id="Shape" class="fill-neutral" fill-rule="nonzero"></path>
            <path d="M21.7,39.9 L79.2,50.7 L79.5,130.3 L21.9,115.1 C21.9,115.1 22.2,39.9 21.7,39.9 Z" id="Shape" class="fill-primary-100" fill-rule="nonzero"></path>
            <path d="M134.6,111.3 L79.5,130.3 L79.2,54.7 L79.2,50.8 L134.4,36.9 C134.2,36.9 134.2,51.3 134.3,67.4 C134.4,87.9 134.6,111.3 134.6,111.3 Z" id="Shape" class="fill-primary-100" fill-rule="nonzero"></path>
            <path d="M134.3,61.7 L87.7,74.8 C85.7,75 83.9,73.8 83.3,71.8 L79.3,54.7 L79.3,50.8 L134.5,36.9 C134.2,36.8 134.2,45.6 134.3,61.7 Z" id="Shape" class="fill-primary-200" fill-rule="nonzero"></path>
            <path d="M77.8,92.6 L77.9,130.3 L18.5,114.5 C18.5,114.5 18.8,36.2 18.3,36.2 L77.5,47.4" id="Shape" class="stroke-primary" stroke-width="3" stroke-linecap="round" stroke-linejoin="round"></path>
            <path d="M77.7,72.1 L77.7,84.3" id="Shape" class="stroke-primary" stroke-width="3" stroke-linecap="round" stroke-linejoin="round"></path>
            <path d="M134.2,55.4 C134.2,42.7 134.2,32.9 134.4,32.9 L77.7,47.3" id="Shape" class="stroke-primary" stroke-width="3" stroke-linecap="round" stroke-linejoin="round"></path>
            <path d="M77.8,101.2 L77.9,130.3 L134.6,110.5 C134.6,110.5 134.4,84.9 134.3,63.1" id="Shape" class="stroke-primary" stroke-width="3" stroke-linecap="round" stroke-linejoin="round"></path>
            <polygon id="Shape" class="fill-neutral" fill-rule="nonzero" points="18.4 36.1 77.2 20.1 134.4 32.9 77.6 47.3"></polygon>
            <polygon id="Shape" class="fill-primary-300" fill-rule="nonzero" points="27.7 37 77 23.1 129.6 34.9 82.1 47.3"></polygon>
            <polyline id="Shape" class="stroke-primary" stroke-width="3" stroke-linecap="round" stroke-linejoin="round" points="96.4 24.4 134.4 32.9 77.6 47.3 18.4 36.1 77.2 20.1 84.5 21.8"></polyline>
            <path d="M87.7,22.5 L89,22.8" id="Shape" class="stroke-primary" stroke-width="3" stroke-linecap="round" stroke-linejoin="round"></path>
            <path d="M18.4,36.1 L1.6,19.7 C0.1,18.2 0.8,15.6 2.9,15.1 L58.9,1 C60.4,0.6 61.9,1.2 62.9,2.3 L77.2,20.1 L18.4,36.1" id="Shape" class="stroke-primary" stroke-width="3" stroke-linecap="round" stroke-linejoin="round"></path>
            <path d="M134.4,32.9 L147.7,49 C149,50.7 148.2,53.1 146.2,53.7 L98.8,67.6 C97.3,68 95.8,67.5 94.8,66.4 L77.6,47.4 L134.4,32.9 Z" id="Shape" class="fill-neutral" fill-rule="nonzero"></path>
            <path d="M133.6,36.1 L144.4,49.8 C145.7,51.5 144.9,53.9 142.9,54.5 L98.7,67.6 C97.2,68 95.7,67.5 94.7,66.4 L79.9,49.8 L133.6,36.1 Z" id="Shape" class="fill-primary-100" fill-rule="nonzero"></path>
            <path d="M134.4,32.9 L147.7,49 C149,50.7 148.2,53.1 146.2,53.7 L98.8,67.6 C97.3,68 95.8,67.5 94.8,66.4 L77.6,47.4 L134.4,32.9 Z" id="Shape" class="stroke-primary" stroke-width="3" stroke-linecap="round" stroke-linejoin="round"></path>
            <path d="M77,34.2 L77,47.2" id="Shape" stroke-width="3" class="stroke-primary fill-primary-100" fill-rule="nonzero" stroke-linecap="round" stroke-linejoin="round"></path>
            <path d="M77,25.4 L77,29.4" id="Shape" stroke-width="3" class="stroke-primary fill-primary-100" fill-rule="nonzero" stroke-linecap="round" stroke-linejoin="round"></path>
            <polygon id="Shape" class="fill-neutral" fill-rule="nonzero" points="50.8 77.7 29.2 72.8 29.2 57.9 50.8 62.8"></polygon>
            <polygon id="Shape" class="fill-primary-300" fill-rule="nonzero" points="50.8 77.7 31.4 73.6 31.4 61 50.3 65.4"></polygon>
            <polygon id="Shape" class="stroke-primary" stroke-width="3" stroke-linecap="round" stroke-linejoin="round" points="50.8 77.7 29.2 72.8 29.2 57.9 50.8 62.8"></polygon>
        </g>
    </g>
</svg>
